img/recomendation/5.svg

<svg width="44" height="44" viewBox="0 0 44 44" fill="none" xmlns="http://www.w3.org/2000/svg">
<g id="mdi:energy-to-grid">
<path id="Vector" d="M20.8816 9.99169L17.6183 8.34169L19.9283 3.66669H35.4566L37.785 8.34169L34.5216 9.97335L33.2016 7.33335H22.2016L20.8816 9.99169ZM39.8383 14.6667H31.5333L30.085 9.16669H25.3183L23.8333 14.6667H15.5833L13.2183 19.3417L16.5 20.9734L17.8383 18.3334H37.5833L38.885 20.9917L42.1666 19.36L39.8383 14.6667ZM38.28 40.3334H34.485L34.045 38.6834L27.7016 29.15L21.34 38.6834L20.9183 40.3334H17.1233L22.4216 20.1667H26.2166L25.5566 22.6417L27.7016 25.85L29.8283 22.6417L29.1866 20.1667H33L38.28 40.3334ZM26.5833 27.5L24.9516 25.025L22.7883 33.2384L26.5833 27.5ZM32.615 33.22L30.4516 25.0067L28.8016 27.5L32.615 33.22ZM16.5 29.3334L9.16665 22V27.5H1.83331V31.1667H9.16665V36.6667L16.5 29.3334Z" fill="#13023E"/>
</g>
</svg>

<svg width="44" height="44" viewBox="0 0 44 44" fill="none" xmlns="http://www.w3.org/2000/svg"><g id="mdi:energy-to-grid"><path id="Vector" d="M20.882 9.992l-3.264-1.65 2.31-4.675h15.529l2.328 4.675-3.263 1.631-1.32-2.64h-11l-1.32 2.659zm18.956 4.675h-8.305l-1.448-5.5h-4.767l-1.485 5.5h-8.25l-2.365 4.675 3.282 1.631 1.338-2.64h19.745l1.302 2.659 3.282-1.632-2.329-4.693zM38.28 40.333h-3.795l-.44-1.65-6.343-9.533-6.362 9.533-.422 1.65h-3.795l5.299-20.166h3.795l-.66 2.475 2.145 3.208 2.126-3.208-.641-2.475H33l5.28 20.166zM26.583 27.5l-1.631-2.475-2.164 8.213 3.795-5.738zm6.032 5.72l-2.163-8.213-1.65 2.493 3.813 5.72zM16.5 29.333L9.167 22v5.5H1.833v3.667h7.334v5.5l7.333-7.334z" fill="#13023E"/></g></svg>
